icons/4_Outdated/ProtonVPN.svg

<svg width="1024" height="1024" viewBox="0 0 1024 1024" fill="none" xmlns="http://www.w3.org/2000/svg">
<g clip-path="url(#clip0_3_656)">
<path d="M512 1024C794.77 1024 1024 794.77 1024 512C1024 229.23 794.77 0 512 0C229.23 0 0 229.23 0 512C0 794.77 229.23 1024 512 1024Z" fill="#98DC9A"/>
<path d="M734.299 323.902C734.299 292.302 708.699 266.602 676.999 266.602C645.399 266.602 619.699 292.202 619.699 323.902V325.702L370.199 406.302C352.399 380.102 316.799 373.302 290.699 391.102C264.499 408.902 257.699 444.502 275.499 470.602C286.199 486.302 303.899 495.702 322.799 495.702C328.799 495.602 334.699 494.602 340.299 492.702L504.199 699.702C491.799 728.802 505.299 762.402 534.399 774.802C563.499 787.202 597.099 773.702 609.499 744.602C619.299 721.602 613.099 694.902 594.099 678.702L681.199 381.002C711.299 378.802 734.399 353.902 734.299 323.902ZM557.199 663.602C548.399 663.702 539.699 665.902 531.899 669.902L371.799 467.302C376.199 460.102 378.999 451.902 379.899 443.502L634.799 362.202C637.499 365.202 640.399 367.902 643.699 370.302L557.599 663.702H557.199V663.602Z" fill="white"/>
</g>
<defs>
<clipPath id="clip0_3_656">
<rect width="1024" height="1024" fill="white"/>
</clipPath>
</defs>
</svg>

<svg xmlns="http://www.w3.org/2000/svg" viewBox="0 0 1024 1024">
   <circle cx="512" cy="512" r="512" style="fill:#56b366"/>
   <path d="M734.3 323.9c0-31.6-25.6-57.3-57.3-57.3-31.6 0-57.3 25.6-57.3 57.3v1.8l-249.5 80.6c-17.8-26.2-53.4-33-79.5-15.2-26.2 17.8-33 53.4-15.2 79.5 10.7 15.7 28.4 25.1 47.3 25.1 6-.1 11.9-1.1 17.5-3l163.9 207c-12.4 29.1 1.1 62.7 30.2 75.1 29.1 12.4 62.7-1.1 75.1-30.2 9.8-23 3.6-49.7-15.4-65.9L681.2 381c30.1-2.2 53.2-27.1 53.1-57.1zM557.2 663.6c-8.8.1-17.5 2.3-25.3 6.3L371.8 467.3c4.4-7.2 7.2-15.4 8.1-23.8l254.9-81.3c2.7 3 5.6 5.7 8.9 8.1l-86.1 293.4h-.4z" style="fill:#fff"/>
</svg>
